X:1
T:3 Lieder
T:Sehnsucht
T:3 Lieder
T:Fanny (Mendelssohn) Hensel
T:Johann Gustav Droysen
T:1. Sehnsucht
T:(originally published as Op.9, No.7 by Felix Mendelssohn)
T:OpenScore (CC0)
C:Fanny (Mendelssohn) Hensel
Z:Johann Gustav Droysen
Z:OpenScore (CC0)
%%score ( 1 2 ) { ( 3 6 ) | ( 4 5 ) }
L:1/8
Q:1/4=92
M:4/4
K:D
V:1 treble nm="Singstimme\nVoice"
V:2 treble 
V:3 treble nm="Pianoforte"
V:6 treble 
V:4 bass 
V:5 bass 
V:1
"^Andante"!p! d8- | d3 c (cB) A2 | G2 (FA) (F3 E) | D2 z2 !>!G4 | F2 z2 (A2 c2) | %5
w: 1.
  Fern
|_ und fer- * ner|schallt der * Rei- *|gen. Wohl|mir! um mich|
w: 2.  Horch!|_ die Nacht * schwebt|durch die * Räu *|me. *|wand durch- *|
!<(! (d2!<)!!>(! f4)!>)! (ed) | c2 (Bc) d3 c | A2 z2"^express." d2 =c2 | _B2 A2 G2 (AF) | %9
w: her _ ist *|Schwei gen * auf der|Flur; zu dem|vol len Her zen *|
w: \-   rauscht * die *|Bäu me * lis pelnd|leis. Ach, so|schweifen * lie be- *|
 G2 z2 A2 A2 | (!>!_B4 A2) A2 | !>!_B4 A2 z2 |!<(! f4!<)!!>(! e4!>)! | d8- | %14
w: nur will nicht|Ruh _ sich|nei   \-         \- gen,|will nicht|Ruh'|
w: heiss mei ne|Wünsch' _ und|Träu  \-         \- me,|mei   \-      \- ne|Wänsch'|
"^dim."!>(! (dc) (BA)!>)!!pp! (G3 E) | D2 z2 z4 | !fermata!z8 |] %17
w: _ _ sich * nei- *|gen.||
w: _ _ und * Träu- *|me.||
V:2
 x8 | x8 | x8 | x4 G3 A | x8 | x8 | x8 | x8 | x8 | x8 | x8 | x8 | x8 | x8 | x8 | x8 | x8 |] %17
w: |||||||||||||||||
w: |||Ihr Ge||||||||||||||
V:3
!p! ([Fd]D[Fc]D [GB]DAD) | (BD[FA]D [GB]D[FA]D) | (GD F2 D2) [G,C]2 |!pp! [F,D]2 z2 z2 ([A,-EG]2 | %4
 [A,DF]2) z2 z2 [Gc]2 | (d2 f4 ed) | [Ec]2 ([FB][Ec] [Fd]2) [DE]2 | %7
 [CE]2 z2"_dolce" ([_Bd]2 [A=c]2 | [G_B]2 [FA]2 [_B,DG]2 [=C_E]2 | [_B,DG]2) z2 A4 | (!>!_B4 A4) | %11
 (!>!d4 c4) |!pp! ([Fd][ce][Bd][Ac] [GB][Bd][Ac][GB]) | ([FA]cBA GFE[D=F]) | [D^F]2 z2 [G,C]4 | %15
!pp! ([F,D]A,DF [DA]dfa | !fermata![fd']8) |] %17
V:4
 (B,2 A,2 G,2 F,2) | (G,2 D,2 G,,2 D,2) | [B,,D,]2 (D,F, A,2) A,,2- | (A,,B,,A,,B,, A,,B,,A,,B,,) | %4
 (A,,B,,A,,B,, A,,B,,A,,B,,) | (A,,B,,A,,D, F,A,CB,) | A,2 A,4 [E,^G,]2 | [A,,A,]2 z2 [G,,G,]4- | %8
 [G,,G,]4 [G,,-G,]4 | (G,,D,G,D) ^C4 | (!>!D4 ^C4) | (!>!G,4 A,4) | A,8- | (A,4 B,A,G,[^G,B,]) | %14
 A,2 z2 A,,4 | D,,2 z2 [D,F,]2 z2 |[K:treble] !fermata![DA]8 |] %17
V:5
 x8 | x8 | x2 A,,2 x4 | D,,4 z2 (C,,2 | D,,4) z2 E,,2 | F,,4 z2 ^G,2 | x2 (D,C, B,,2) x2 | x8 | %8
 x8 | x8 | x8 | x8 | x8 | x8 | x8 | x8 |[K:treble] x8 |] %17
V:6
 x8 | x8 | x8 | x8 | x8 | A6 E2 | x8 | x8 | D4 x4 | x4 EGEG | EGEG EGEG | EGEG EGAG | x8 | x8 | %14
 x8 | x8 | x8 |] %17

